X:1
T:Title
%%score 1 { 2 | 3 }
L:1/8
Q:1/4=95
M:3/4
K:Ab
V:1 treble nm="Grand Piano, Soprano"
V:2 bass nm="Choir Pad, Śląsk, Adam Geibel, 1902"
V:3 bass 
V:1
 [CE]2 [Ec]>[CA] [Fd]2 | [Ec]2 [CA]>[DF] [CE]2 | [CE]2 [EA][Ac] [Af]2 | [Ae]2 [Ac]>[GB] [GB]2 | %4
w: By~Adam~Geibel,~1902 * * *||||
 [Gc]2 [FA][CG] [CF]2 | [=DB]2 E4 | E2 [DB]>[DB] [Ec]2 | [DB]2 [CA]>[DB] [Ec]2 | %8
w: ||||
 [CE]2 [Ec]>[Ec] [Fd]2 | [Ec]2 [DB]>[Ec] [Fd]2 | [Bf]2 [ce][Ac] [Ac]2 | [GB]2 [EA]4- | [EA]4 z2 |] %13
w: |||||
V:2
 A,2 A,>A, A,2 | A,2 A,>A, A,2 | A,2[K:treble] CE D2 | C2 E>E E2 | C2 C[K:bass]B, A,2 | A,2 G,4 | %6
 E,2 G,>G, G,2 | G,2 A,>A, A,2 | A,2 =A,>A, A,2 | =A,2 B,>B, B,2 | D2 CE E2 | D2 C4- | C4 z2 |] %13
V:3
 A,,2 A,,>A,, A,,2 | A,,2 A,,>A,, A,,2 | A,,2 A,A, A,2 | A,2 E,>E, E,2 | =E,2 F,F, F,2 | B,,2 E,4 | %6
 z2 E,>E, E,2 | E,2 A,,>A,, A,,2 | z2 F,>F, F,2 | F,2 B,,>B,, B,,2 | G,2 A,A, E,2 | E,2 A,,4- | %12
 A,,4 z2 |] %13

